X: 7082
T: Christening, The
R: jig
M: 6/8
K: Dmajor
|:~E3 A,CE|FEF A2B|~c3 ece|fec BAB|
~c3 BAF|ECE FEC|DFA GBe|cAA A3:|
|:efe Ace|fef a2f|eAA fec|fec Bcd|
[1 efe Ace|fef a2f|eAA BcB|ABA A3:|
[2~c3 BAF|ECE FEC|DFA GBe|cAA AGF||

